X:2668
T:Carnie's canter
R:Reel
C:J. Scott Skinner
S:Charlie Menzies
O:Scotland
M:4/4
K:F
B|\
A>c c/c/c dc =Bc|Ac =Bc fc _BA|\
B>d d/d/d ed ^cd|Bd ^cd ed =cB|\
A>c c/c/c dc =Bc|Ac =Bc fc _BA|\
{Bc}BA Bd g^f ga|ba gf ed cB||\
A>f f/f/f cf Af|af ef cf Af|\
B>g g/g/g dg Bg|ba gf ed cB|\
a>f f/f/f cf Af|af ef cf Af|\
bg af ge fd|cB AG F3||


